X: 2
T: Autumn Child
R: reel
M: 4/4
L: 1/8
K: Edor
B=c|:B2EF G2AG|F2EF D2BA|BEEF GABc|d2cB ABcd|
B2EF G2AG|F2EF D2BA|BEEF GABA|FGFD EFGA:|
|:B2 e2 d3e|c2BA BEFE|DEFG A2Bc|d2cB ABcd|
B2EF G2AG|F2EF D2BA|BEEF GABA|1 FGFD EFGA:|2 FGFD E4||


Tune 1336	Setting 1336

